packages/sources/icons/src/vitamix/notification-line.svg

<svg width="16" height="16" viewBox="0 0 16 16" xmlns="http://www.w3.org/2000/svg"><path fill-rule="evenodd" clip-rule="evenodd" d="M1.33331 12.6667V11.3334H1.99998V6.68735C1.99998 3.36202 4.68665 0.666687 7.99998 0.666687C11.3133 0.666687 14 3.36202 14 6.68735V11.3334H14.6666V12.6667H1.33331ZM12.6666 11.3334V6.68735C12.6666 4.09869 10.5773 2.00002 7.99998 2.00002C5.42265 2.00002 3.33331 4.09869 3.33331 6.68735V11.3334H12.6666ZM7.99998 15C8.92045 15 9.66665 14.2538 9.66665 13.3334H6.33331C6.33331 14.2538 7.0795 15 7.99998 15Z"/></svg>

<svg width="16" height="16" xmlns="http://www.w3.org/2000/svg"><path fill-rule="evenodd" clip-rule="evenodd" d="M1.333 12.667v-1.334H2V6.687C2 3.362 4.687.667 8 .667s6 2.695 6 6.02v4.646h.667v1.334H1.333Zm11.334-1.334V6.687C12.667 4.1 10.577 2 8 2S3.333 4.099 3.333 6.687v4.646h9.334ZM8 15c.92 0 1.667-.746 1.667-1.667H6.333C6.333 14.253 7.08 15 8 15Z"/></svg>
